X: 29011
T: Navvy On The Shore, The
R: reel
M: 4/4
K: Dmajor
DE|:F2dB AFDF|E2EF EDB,C|D2dB AFDF|EDEF E2DE|
F2dB AFDF|E2 EF EDB,C|D3A BAFD|1 EDCE D2DE:|2 EDCE D2EB/c/||
|:d2AF DEFA|BAFE DEFA|d2AF DEFA|BFAF EDB,C|
D2AF DEFA|BAFE DEFA|d3A BAFD|1 EDCE D2EB/c/:|2 EDCE D2DE||

